X:0
T:Dundee
G:psalm tune
M:2/2
L:1/2
Q:1/2=80
K:DDor
D|DE|FE|DD|^C||F|AG|F E|F||
F|AG|FE|DD|^C||F|ED|D^C|D|]

and later compilers wrote the tune as minor:

